images/kickoff_event/designer.svg

<?xml version="1.0" encoding="iso-8859-1"?>
<!-- Generator: Adobe Illustrator 18.0.0, SVG Export Plug-In . SVG Version: 6.00 Build 0)  -->
<!DOCTYPE svg PUBLIC "-//W3C//DTD SVG 1.1//EN" "http://www.w3.org/Graphics/SVG/1.1/DTD/svg11.dtd">
<svg version="1.1" id="Capa_1" xmlns="http://www.w3.org/2000/svg" xmlns:xlink="http://www.w3.org/1999/xlink" x="0px" y="0px"
	 viewBox="0 0 324.958 324.958" style="enable-background:new 0 0 324.958 324.958;" xml:space="preserve">
<path d="M310.399,104.002c21.42-21.419,18.911-58.779-5.592-83.282c-24.285-24.284-60.956-27.251-82.537-6.975
	c-0.404,0.246-0.784,0.535-1.124,0.876L13.98,222.015c-0.263,0.263-0.49,0.552-0.698,0.854c-0.073,0.107-0.131,0.219-0.196,0.329
	c-0.121,0.203-0.233,0.408-0.329,0.624c-0.059,0.132-0.11,0.266-0.158,0.4c-0.076,0.209-0.138,0.42-0.189,0.637
	c-0.032,0.137-0.066,0.273-0.089,0.411c-0.012,0.066-0.034,0.13-0.043,0.197L0.052,317.856c-0.244,1.842,0.38,3.693,1.688,5.013
	c1.134,1.143,2.67,1.774,4.259,1.774c0.246,0,0.493-0.015,0.74-0.046l92.99-11.547c0.074-0.009,0.145-0.034,0.219-0.046
	c0.146-0.023,0.289-0.057,0.434-0.091c0.211-0.051,0.416-0.111,0.619-0.184c0.141-0.05,0.278-0.102,0.416-0.162
	c0.213-0.095,0.416-0.206,0.616-0.324c0.113-0.067,0.228-0.126,0.337-0.201c0.307-0.209,0.6-0.44,0.865-0.706l181.02-181.218
	c0.005-0.005,0.01-0.007,0.015-0.012c0.005-0.005,0.008-0.01,0.012-0.015l25.81-25.838
	C310.191,104.166,310.303,104.098,310.399,104.002z M296.322,29.204c18.107,18.108,21.759,44.485,9.502,61.678l-71.486-71.555
	C251.554,7.13,278.053,10.937,296.322,29.204z M98.99,298.606l-14.14-14.152L257.41,111.71l14.137,14.15L98.99,298.606z
	 M50.48,307.074L17.898,274.47l4.68-35.369l13.759,13.773c0.052,0.056,0.089,0.12,0.143,0.174c0.053,0.053,0.116,0.089,0.171,0.139
	l49.421,49.468L50.48,307.074z M76.369,275.964l-27.152-27.178L221.775,76.041l27.153,27.18L76.369,275.964z M40.735,240.297
	l-14.029-14.043L199.263,53.508l14.03,14.044L40.735,240.297z M15.915,289.461l19.473,19.486l-22.42,2.784L15.915,289.461z
	 M280.027,117.371l-72.283-72.353l17.648-17.667l72.283,72.353L280.027,117.371z"/>
<g>
</g>
<g>
</g>
<g>
</g>
<g>
</g>
<g>
</g>
<g>
</g>
<g>
</g>
<g>
</g>
<g>
</g>
<g>
</g>
<g>
</g>
<g>
</g>
<g>
</g>
<g>
</g>
<g>
</g>
</svg>

<?xml version="1.0" encoding="UTF-8" standalone="no"?>
<svg width="325px" height="325px" viewBox="0 0 325 325" version="1.1" xmlns="http://www.w3.org/2000/svg" xmlns:xlink="http://www.w3.org/1999/xlink">
    <!-- Generator: Sketch 39.1 (31720) - http://www.bohemiancoding.com/sketch -->
    <title>Slice 1</title>
    <desc>Created with Sketch.</desc>
    <defs></defs>
    <g id="Page-1" stroke="none" stroke-width="1" fill="none" fill-rule="evenodd">
        <path d="M310.399,104.002 C331.819,82.583 329.31,45.223 304.807,20.72 C280.522,-3.564 243.851,-6.531 222.27,13.745 C221.866,13.991 221.486,14.28 221.146,14.621 L13.98,222.015 C13.717,222.278 13.49,222.567 13.282,222.869 C13.209,222.976 13.151,223.088 13.086,223.198 C12.965,223.401 12.853,223.606 12.757,223.822 C12.698,223.954 12.647,224.088 12.599,224.222 C12.523,224.431 12.461,224.642 12.41,224.859 C12.378,224.996 12.344,225.132 12.321,225.27 C12.309,225.336 12.287,225.4 12.278,225.467 L0.052,317.856 C-0.192,319.698 0.432,321.549 1.74,322.869 C2.874,324.012 4.41,324.643 5.999,324.643 C6.245,324.643 6.492,324.628 6.739,324.597 L99.729,313.05 C99.803,313.041 99.874,313.016 99.948,313.004 C100.094,312.981 100.237,312.947 100.382,312.913 C100.593,312.862 100.798,312.802 101.001,312.729 C101.142,312.679 101.279,312.627 101.417,312.567 C101.63,312.472 101.833,312.361 102.033,312.243 C102.146,312.176 102.261,312.117 102.37,312.042 C102.677,311.833 102.97,311.602 103.235,311.336 L284.255,130.118 C284.26,130.113 284.265,130.111 284.27,130.106 C284.275,130.101 284.278,130.096 284.282,130.091 L310.092,104.253 C310.191,104.166 310.303,104.098 310.399,104.002 L310.399,104.002 Z M296.322,29.204 C314.429,47.312 318.081,73.689 305.824,90.882 L234.338,19.327 C251.554,7.13 278.053,10.937 296.322,29.204 L296.322,29.204 Z M98.99,298.606 L84.85,284.454 L257.41,111.71 L271.547,125.86 L98.99,298.606 L98.99,298.606 Z M50.48,307.074 L17.898,274.47 L22.578,239.101 L36.337,252.874 C36.389,252.93 36.426,252.994 36.48,253.048 C36.533,253.101 36.596,253.137 36.651,253.187 L86.072,302.655 L50.48,307.074 L50.48,307.074 Z M76.369,275.964 L49.217,248.786 L221.775,76.041 L248.928,103.221 L76.369,275.964 L76.369,275.964 Z M40.735,240.297 L26.706,226.254 L199.263,53.508 L213.293,67.552 L40.735,240.297 L40.735,240.297 Z M15.915,289.461 L35.388,308.947 L12.968,311.731 L15.915,289.461 L15.915,289.461 Z M280.027,117.371 L207.744,45.018 L225.392,27.351 L297.675,99.704 L280.027,117.371 L280.027,117.371 Z" id="Shape" fill="#FFFFFF"></path>
    </g>
</svg>
